X: 931
M: C
L: 1/8
K: Amix
V: 1
e "^:S:"|\
|:\
cAdA eAfA | ^gAac A/A/A Te2 |]
V: 2 clef=bass middle=d
e |\
a2a2 a2a2 | g2g2 g2g2 |\
a2a2 a2a2 | e2e2 A2A2 :|\
|:\
a2a2 a2a2 | g2g2 g2g2 |
a2a2 a2a2 | d2e2 A2A2 |\
a2a2 a2a2 | g2g2 G2G2 | A2B2 c2d2 | e2e2 A2A2 |]

